X:1
T:Title
%%score { ( 1 3 ) | ( 2 4 ) }
L:1/8
Q:1/4=120
M:4/4
K:G
V:1 treble nm="Grand Piano"
V:3 treble 
V:2 bass 
V:4 bass 
V:1
 B4 B2 A2 | G4 [DF]4 | [CE]2 [DF]2 [DG]2 [DA]2 | [DB]8 | d4 c2 A2 | B4 A4 | A2 E2 [^CF]2 [CG]2 | %7
w: S.~M.~Bixby * *|||||||
 [A,DF]8 | [G,DG]4 [G,DG]2 [G,DG]2 | [G,EG]4 [G,DG]4 | A2 A2 A2 A2 | B8 | [Ec]4 [EB]2 [E_B]2 | %13
w: ||||||
 [DB]4 [B,DG]4 | [CEG]2 [CEG]2 [A,CG]2 [A,CF]2 | [G,B,G]8 | [G,B,G]4 [G,DG]3 [G,CE] | [G,B,D]8 | %18
w: |||||
 [G,CE]4 [G,DG]3 A | B8 | c4 B2 A2 | [G,DG]4 [CF]2 [B,G]2 | [DB]2 c4 B2 | A8 | [Dd]4 [Dd]2 [Dd]2 | %25
w: |||||||
 c4 B2 A2 | B4 [G^c]4 | [Fd]8 | [G,G]4 [G,DG]2 [G,CE]2 | z4 [B,G]2 z2 | z4 A4 | [G,B,DG]8 |] %32
w: |||||||
V:2
 [G,D]4 [G,D]2 [G,CD]2 | [G,B,D]4 [B,,G,]4 | [C,G,]2 [C,A,]2 [B,,G,]2 [D,F,]2 | [G,,G,]8 | %4
 [G,B,D]4 [F,D]2 [D,F,D]2 | [G,D]4 [F,A,D]4 | [E,G,^C]2 [E,G,C]2 [A,,A,]2 [A,,A,]2 | D,4 C,4 | %8
 B,,4 B,,2 B,,2 | C,4 B,,4 | [D,F,D]2 [D,F,D]2 [F,A,D]2 [D,F,D]2 | [G,D]8 | %12
 [A,,G,]4 [B,,G,]2 [C,G,]2 | [B,,G,]4 E,4 | A,,2 A,,2 D,2 D,2 | G,,8 | G,,4 B,,3 C, | G,,8 | %18
 C,4 B,,3 [D,F,D] | [G,D]8 | [F,A,D]4 [G,D]2 [D,F,D]2 | B,,4 A,,2 G,,2 | z2 E4 [G,D]2 | [D,F,D]8 | %24
 [G,,B,]4 [G,,B,]2 [B,,G,]2 | [D,F,D]4 [D,D]2- [D,F,D]2 | [G,D]4 [E,A,]4 | A,8 | B,,4 B,,2 C,2 | %29
 G,,4 E,2 ^D,2 | [D,G,D]4 [D,D]4 | G,,8 |] %32
V:3
 x8 | x8 | x8 | x8 | x8 | x8 | x8 | x8 | x8 | x8 | x8 | x8 | x8 | x8 | x8 | x8 | x8 | x8 | x8 | %19
 x8 | x8 | z4 D4 | x8 | x8 | x8 | x8 | x8 | x8 | x8 | [G,B,D]4 G,2- [G,CA]2 | B4 z2 C2 | x8 |] %32
V:4
 x8 | x8 | x8 | x8 | x8 | x8 | x8 | x8 | x8 | x8 | x8 | x8 | x8 | x8 | x8 | x8 | x8 | x8 | x8 | %19
 x8 | x8 | x8 | G,6 z2 | x8 | x8 | z4 G,2 z2 | x8 | D,6 C,2 | x8 | x8 | z4 F,2 z2 | x8 |] %32

